svgs/sharp-light/rug.svg

<svg xmlns="http://www.w3.org/2000/svg" viewBox="0 0 640 512"><!--! Font Awesome Pro 6.6.0 by @fontawesome - https://fontawesome.com License - https://fontawesome.com/license (Commercial License) Copyright 2024 Fonticons, Inc. --><path d="M16 64L0 64 0 96l16 0 16 0 0 64-16 0L0 160l0 32 16 0 16 0 0 48-16 0L0 240l0 32 16 0 16 0 0 48-16 0L0 320l0 32 16 0 16 0 0 64-16 0L0 416l0 32 16 0 16 0 16 0 16 0 512 0 16 0 16 0 16 0 16 0 0-32-16 0-16 0 0-64 16 0 16 0 0-32-16 0-16 0 0-48 16 0 16 0 0-32-16 0-16 0 0-48 16 0 16 0 0-32-16 0-16 0 0-64 16 0 16 0 0-32-16 0-16 0-16 0-16 0L64 64 48 64 32 64 16 64zM64 96l64 0 0 320-64 0 0-64 0-32 0-48 0-32 0-48 0-32 0-64zm448 0l64 0 0 64 0 32 0 48 0 32 0 48 0 32 0 64-64 0 0-320zm-32 0l0 320-320 0 0-320 320 0z"/></svg>

<svg xmlns="http://www.w3.org/2000/svg" viewBox="0 0 640 512"><!--! Font Awesome Pro 6.4.2 by @fontawesome - https://fontawesome.com License - https://fontawesome.com/license (Commercial License) Copyright 2023 Fonticons, Inc. --><path d="M16 64H0V96H16 32v64H16 0v32H16 32v48H16 0v32H16 32v48H16 0v32H16 32v64H16 0v32H16 32 48 64 576h16 16 16 16V416H624 608V352h16 16V320H624 608V272h16 16V240H624 608V192h16 16V160H624 608V96h16 16V64H624 608 592 576 64 48 32 16zM64 96h64V416H64V352 320 272 240 192 160 96zm448 0h64v64 32 48 32 48 32 64H512V96zm-32 0V416H160V96H480z"/></svg>
